images/16757958.svg

<?xml version="1.0" encoding="UTF-8"?>
<svg xmlns="http://www.w3.org/2000/svg" xmlns:xlink="http://www.w3.org/1999/xlink" width="300pt" height="300pt" viewBox="0 0 300 300" version="1.1">
<defs>
<g>
<symbol overflow="visible" id="glyph0-0">
<path style="stroke:none;" d="M 0.546875 1.9375 L 0.546875 -7.75 L 6.046875 -7.75 L 6.046875 1.9375 Z M 1.171875 1.328125 L 5.4375 1.328125 L 5.4375 -7.140625 L 1.171875 -7.140625 Z M 1.171875 1.328125 "/>
</symbol>
<symbol overflow="visible" id="glyph0-1">
<path style="stroke:none;" d="M 4.328125 -7.28125 C 3.546875 -7.28125 2.921875 -6.984375 2.453125 -6.390625 C 1.992188 -5.804688 1.765625 -5.007812 1.765625 -4 C 1.765625 -2.988281 1.992188 -2.1875 2.453125 -1.59375 C 2.921875 -1.007812 3.546875 -0.71875 4.328125 -0.71875 C 5.117188 -0.71875 5.742188 -1.007812 6.203125 -1.59375 C 6.660156 -2.1875 6.890625 -2.988281 6.890625 -4 C 6.890625 -5.007812 6.660156 -5.804688 6.203125 -6.390625 C 5.742188 -6.984375 5.117188 -7.28125 4.328125 -7.28125 Z M 4.328125 -8.171875 C 5.453125 -8.171875 6.351562 -7.789062 7.03125 -7.03125 C 7.707031 -6.28125 8.046875 -5.269531 8.046875 -4 C 8.046875 -2.738281 7.707031 -1.726562 7.03125 -0.96875 C 6.351562 -0.21875 5.453125 0.15625 4.328125 0.15625 C 3.203125 0.15625 2.300781 -0.21875 1.625 -0.96875 C 0.957031 -1.71875 0.625 -2.726562 0.625 -4 C 0.625 -5.269531 0.957031 -6.28125 1.625 -7.03125 C 2.300781 -7.789062 3.203125 -8.171875 4.328125 -8.171875 Z M 4.328125 -8.171875 "/>
</symbol>
<symbol overflow="visible" id="glyph0-2">
<path style="stroke:none;" d="M 1.078125 -8.015625 L 2.171875 -8.015625 L 2.171875 -4.734375 L 6.109375 -4.734375 L 6.109375 -8.015625 L 7.1875 -8.015625 L 7.1875 0 L 6.109375 0 L 6.109375 -3.8125 L 2.171875 -3.8125 L 2.171875 0 L 1.078125 0 Z M 1.078125 -8.015625 "/>
</symbol>
</g>
</defs>
<g id="surface30945">
<rect x="0" y="0" width="300" height="300" style="fill:rgb(100%,100%,100%);fill-opacity:1;stroke:none;"/>
<path style="fill:none;stroke-width:1;stroke-linecap:butt;stroke-linejoin:miter;stroke:rgb(0%,0%,0%);stroke-opacity:1;stroke-miterlimit:10;" d="M 113.691406 148.824219 L 113.691406 148.824219 M 111.699219 151.066406 L 112.589844 151.613281 M 109.707031 153.3125 L 111.484375 154.402344 M 107.71875 155.554688 L 110.382812 157.195312 M 105.726562 157.800781 L 109.28125 159.984375 M 103.734375 160.042969 L 108.175781 162.773438 M 101.742188 162.285156 L 107.074219 165.5625 M 99.753906 164.53125 L 105.972656 168.351562 M 97.761719 166.773438 L 104.867188 171.144531 M 95.769531 169.019531 L 103.765625 173.933594 M 94.5 170.449219 L 103.0625 175.710938 "/>
<path style="fill:none;stroke-width:1.2;stroke-linecap:butt;stroke-linejoin:miter;stroke:rgb(0%,0%,0%);stroke-opacity:1;stroke-miterlimit:10;" d="M 113.691406 148.824219 L 127.242188 173.863281 "/>
<path style="fill:none;stroke-width:1.2;stroke-linecap:butt;stroke-linejoin:miter;stroke:rgb(0%,0%,0%);stroke-opacity:1;stroke-miterlimit:10;" d="M 128.601562 124.566406 L 113.691406 148.824219 "/>
<path style="fill:none;stroke-width:1.2;stroke-linecap:butt;stroke-linejoin:miter;stroke:rgb(0%,0%,0%);stroke-opacity:1;stroke-miterlimit:10;" d="M 85.230469 148.039062 L 113.691406 148.824219 "/>
<path style="fill:none;stroke-width:1.2;stroke-linecap:butt;stroke-linejoin:miter;stroke:rgb(0%,0%,0%);stroke-opacity:1;stroke-miterlimit:10;" d="M 127.242188 173.863281 L 155.703125 174.648438 "/>
<path style="fill:none;stroke-width:1.2;stroke-linecap:butt;stroke-linejoin:miter;stroke:rgb(0%,0%,0%);stroke-opacity:1;stroke-miterlimit:10;" d="M 155.703125 174.648438 L 170.613281 150.390625 "/>
<path style="fill:none;stroke-width:1.2;stroke-linecap:butt;stroke-linejoin:miter;stroke:rgb(0%,0%,0%);stroke-opacity:1;stroke-miterlimit:10;" d="M 170.613281 150.390625 L 157.0625 125.351562 "/>
<path style="fill:none;stroke-width:1.2;stroke-linecap:butt;stroke-linejoin:miter;stroke:rgb(0%,0%,0%);stroke-opacity:1;stroke-miterlimit:10;" d="M 199.074219 151.175781 L 170.613281 150.390625 "/>
<path style="fill:none;stroke-width:1.2;stroke-linecap:butt;stroke-linejoin:miter;stroke:rgb(0%,0%,0%);stroke-opacity:1;stroke-miterlimit:10;" d="M 157.0625 125.351562 L 128.601562 124.566406 "/>
<path style="fill:none;stroke-width:1.2;stroke-linecap:butt;stroke-linejoin:miter;stroke:rgb(0%,0%,0%);stroke-opacity:1;stroke-miterlimit:10;" d="M 154.03125 131.96875 L 131.261719 131.34375 "/>
<path style="fill:none;stroke-width:1.2;stroke-linecap:butt;stroke-linejoin:miter;stroke:rgb(0%,0%,0%);stroke-opacity:1;stroke-miterlimit:10;" d="M 157.0625 125.351562 L 171.972656 101.097656 "/>
<path style="fill:none;stroke-width:1.2;stroke-linecap:butt;stroke-linejoin:miter;stroke:rgb(0%,0%,0%);stroke-opacity:1;stroke-miterlimit:10;" d="M 128.601562 124.566406 L 115.050781 99.527344 "/>
<path style="fill:none;stroke-width:1.2;stroke-linecap:butt;stroke-linejoin:miter;stroke:rgb(0%,0%,0%);stroke-opacity:1;stroke-miterlimit:10;" d="M 115.050781 99.527344 L 86.589844 98.746094 "/>
<path style="fill:none;stroke-width:1.2;stroke-linecap:butt;stroke-linejoin:miter;stroke:rgb(0%,0%,0%);stroke-opacity:1;stroke-miterlimit:10;" d="M 112.019531 106.148438 L 89.25 105.519531 "/>
<path style="fill:none;stroke-width:1.2;stroke-linecap:butt;stroke-linejoin:miter;stroke:rgb(0%,0%,0%);stroke-opacity:1;stroke-miterlimit:10;" d="M 86.589844 98.746094 L 79.132812 110.871094 "/>
<path style="fill:none;stroke-width:1.2;stroke-linecap:butt;stroke-linejoin:miter;stroke:rgb(100%,0%,0%);stroke-opacity:1;stroke-miterlimit:10;" d="M 79.132812 110.871094 L 71.679688 123 "/>
<path style="fill:none;stroke-width:1.2;stroke-linecap:butt;stroke-linejoin:miter;stroke:rgb(0%,0%,0%);stroke-opacity:1;stroke-miterlimit:10;" d="M 86.589844 98.746094 L 79.8125 86.222656 "/>
<path style="fill:none;stroke-width:1.2;stroke-linecap:butt;stroke-linejoin:miter;stroke:rgb(100%,0%,0%);stroke-opacity:1;stroke-miterlimit:10;" d="M 79.8125 86.222656 L 73.039062 73.703125 "/>
<path style="fill:none;stroke-width:1.2;stroke-linecap:butt;stroke-linejoin:miter;stroke:rgb(100%,0%,0%);stroke-opacity:1;stroke-miterlimit:10;" d="M 71.679688 123 L 78.453125 135.519531 "/>
<path style="fill:none;stroke-width:1.2;stroke-linecap:butt;stroke-linejoin:miter;stroke:rgb(0%,0%,0%);stroke-opacity:1;stroke-miterlimit:10;" d="M 78.453125 135.519531 L 85.230469 148.039062 "/>
<path style=" stroke:none;fill-rule:nonzero;fill:rgb(100%,100%,100%);fill-opacity:1;" d="M 67.679688 116.5 L 76.679688 116.5 L 76.679688 129.5 L 67.679688 129.5 Z M 67.679688 116.5 "/>
<g style="fill:rgb(100%,0%,0%);fill-opacity:1;">
  <use xlink:href="#glyph0-1" x="67.679688" y="126.401367"/>
</g>
<path style="fill:none;stroke-width:1.2;stroke-linecap:butt;stroke-linejoin:miter;stroke:rgb(0%,0%,0%);stroke-opacity:1;stroke-miterlimit:10;" d="M 85.230469 148.039062 L 70.320312 172.296875 "/>
<path style="fill:none;stroke-width:1.2;stroke-linecap:butt;stroke-linejoin:miter;stroke:rgb(0%,0%,0%);stroke-opacity:1;stroke-miterlimit:10;" d="M 70.320312 172.296875 L 81.179688 198.613281 "/>
<path style="fill:none;stroke-width:1.2;stroke-linecap:butt;stroke-linejoin:miter;stroke:rgb(0%,0%,0%);stroke-opacity:1;stroke-miterlimit:10;" d="M 65.214844 177.480469 L 73.902344 198.539062 "/>
<path style="fill:none;stroke-width:1.2;stroke-linecap:butt;stroke-linejoin:miter;stroke:rgb(0%,0%,0%);stroke-opacity:1;stroke-miterlimit:10;" d="M 41.933594 174.492188 L 70.320312 172.296875 "/>
<path style="fill:none;stroke-width:1.2;stroke-linecap:butt;stroke-linejoin:miter;stroke:rgb(0%,0%,0%);stroke-opacity:1;stroke-miterlimit:10;" d="M 81.179688 198.613281 L 70.34375 207.84375 "/>
<path style="fill:none;stroke-width:1.2;stroke-linecap:butt;stroke-linejoin:miter;stroke:rgb(100%,0%,0%);stroke-opacity:1;stroke-miterlimit:10;" d="M 70.34375 207.84375 L 59.503906 217.074219 "/>
<path style="fill:none;stroke-width:1.2;stroke-linecap:butt;stroke-linejoin:miter;stroke:rgb(100%,0%,0%);stroke-opacity:1;stroke-miterlimit:10;" d="M 59.503906 217.074219 L 47.378906 209.621094 "/>
<path style="fill:none;stroke-width:1.2;stroke-linecap:butt;stroke-linejoin:miter;stroke:rgb(0%,0%,0%);stroke-opacity:1;stroke-miterlimit:10;" d="M 47.378906 209.621094 L 35.25 202.167969 "/>
<path style=" stroke:none;fill-rule:nonzero;fill:rgb(100%,100%,100%);fill-opacity:1;" d="M 55.503906 210.574219 L 64.503906 210.574219 L 64.503906 223.574219 L 55.503906 223.574219 Z M 55.503906 210.574219 "/>
<g style="fill:rgb(100%,0%,0%);fill-opacity:1;">
  <use xlink:href="#glyph0-1" x="55.503906" y="220.475586"/>
</g>
<path style="fill:none;stroke-width:1.2;stroke-linecap:butt;stroke-linejoin:miter;stroke:rgb(0%,0%,0%);stroke-opacity:1;stroke-miterlimit:10;" d="M 35.25 202.167969 L 41.933594 174.492188 "/>
<path style="fill:none;stroke-width:1.2;stroke-linecap:butt;stroke-linejoin:miter;stroke:rgb(0%,0%,0%);stroke-opacity:1;stroke-miterlimit:10;" d="M 42.429688 200.972656 L 47.777344 178.832031 "/>
<path style="fill:none;stroke-width:1.2;stroke-linecap:butt;stroke-linejoin:miter;stroke:rgb(100%,0%,0%);stroke-opacity:1;stroke-miterlimit:10;" d="M 73.039062 73.703125 L 80.492188 61.578125 "/>
<path style="fill:none;stroke-width:1.2;stroke-linecap:butt;stroke-linejoin:miter;stroke:rgb(0%,0%,0%);stroke-opacity:1;stroke-miterlimit:10;" d="M 80.492188 61.578125 L 87.945312 49.449219 "/>
<path style=" stroke:none;fill-rule:nonzero;fill:rgb(100%,100%,100%);fill-opacity:1;" d="M 69.039062 67.203125 L 78.039062 67.203125 L 78.039062 80.203125 L 69.039062 80.203125 Z M 69.039062 67.203125 "/>
<g style="fill:rgb(100%,0%,0%);fill-opacity:1;">
  <use xlink:href="#glyph0-1" x="69.039062" y="77.104492"/>
</g>
<path style="fill:none;stroke-width:1.2;stroke-linecap:butt;stroke-linejoin:miter;stroke:rgb(0%,0%,0%);stroke-opacity:1;stroke-miterlimit:10;" d="M 171.972656 101.097656 L 200.433594 101.878906 "/>
<path style="fill:none;stroke-width:1.2;stroke-linecap:butt;stroke-linejoin:miter;stroke:rgb(0%,0%,0%);stroke-opacity:1;stroke-miterlimit:10;" d="M 200.433594 101.878906 L 228.890625 102.664062 "/>
<path style="fill:none;stroke-width:1.2;stroke-linecap:butt;stroke-linejoin:miter;stroke:rgb(0%,0%,0%);stroke-opacity:1;stroke-miterlimit:10;" d="M 213.984375 126.921875 L 200.433594 101.878906 "/>
<path style="fill:none;stroke-width:1.2;stroke-linecap:butt;stroke-linejoin:miter;stroke:rgb(0%,0%,0%);stroke-opacity:1;stroke-miterlimit:10;" d="M 228.890625 102.664062 L 242.445312 127.703125 "/>
<path style="fill:none;stroke-width:1.2;stroke-linecap:butt;stroke-linejoin:miter;stroke:rgb(0%,0%,0%);stroke-opacity:1;stroke-miterlimit:10;" d="M 228.890625 102.664062 L 236.347656 90.535156 "/>
<path style="fill:none;stroke-width:1.2;stroke-linecap:butt;stroke-linejoin:miter;stroke:rgb(100%,0%,0%);stroke-opacity:1;stroke-miterlimit:10;" d="M 236.347656 90.535156 L 243.800781 78.410156 "/>
<path style="fill:none;stroke-width:1.2;stroke-linecap:butt;stroke-linejoin:miter;stroke:rgb(0%,0%,0%);stroke-opacity:1;stroke-miterlimit:10;" d="M 242.445312 127.703125 L 227.535156 151.960938 "/>
<path style="fill:none;stroke-width:1.2;stroke-linecap:butt;stroke-linejoin:miter;stroke:rgb(0%,0%,0%);stroke-opacity:1;stroke-miterlimit:10;" d="M 242.445312 127.703125 L 263.742188 146.601562 "/>
<path style="fill:none;stroke-width:1.2;stroke-linecap:butt;stroke-linejoin:miter;stroke:rgb(0%,0%,0%);stroke-opacity:1;stroke-miterlimit:10;" d="M 242.445312 127.703125 L 264.75 110.011719 "/>
<path style="fill:none;stroke-width:1.2;stroke-linecap:butt;stroke-linejoin:miter;stroke:rgb(0%,0%,0%);stroke-opacity:1;stroke-miterlimit:10;" d="M 227.535156 151.960938 L 199.074219 151.175781 "/>
<path style="fill:none;stroke-width:1.2;stroke-linecap:butt;stroke-linejoin:miter;stroke:rgb(0%,0%,0%);stroke-opacity:1;stroke-miterlimit:10;" d="M 227.535156 151.960938 L 241.085938 177 "/>
<path style="fill:none;stroke-width:1.2;stroke-linecap:butt;stroke-linejoin:miter;stroke:rgb(0%,0%,0%);stroke-opacity:1;stroke-miterlimit:10;" d="M 199.074219 151.175781 L 213.984375 126.921875 "/>
<path style="fill:none;stroke-width:1;stroke-linecap:butt;stroke-linejoin:miter;stroke:rgb(0%,0%,0%);stroke-opacity:1;stroke-miterlimit:10;" d="M 199.074219 151.175781 L 199.074219 151.175781 M 200.019531 154.023438 L 200.9375 153.527344 M 200.96875 156.867188 L 202.804688 155.875 M 201.917969 159.714844 L 204.667969 158.226562 M 202.863281 162.5625 L 206.53125 160.578125 M 203.8125 165.410156 L 208.398438 162.925781 M 204.757812 168.253906 L 210.261719 165.277344 M 205.707031 171.101562 L 212.125 167.628906 M 206.65625 173.949219 L 213.992188 169.976562 M 207.601562 176.792969 L 215.855469 172.328125 M 208.207031 178.605469 L 217.042969 173.824219 "/>
<path style="fill:none;stroke-width:1.2;stroke-linecap:butt;stroke-linejoin:miter;stroke:rgb(0%,0%,0%);stroke-opacity:1;stroke-miterlimit:10;" d="M 213.082031 130.148438 L 220.371094 132.179688 "/>
<path style="fill:none;stroke-width:1.2;stroke-linecap:butt;stroke-linejoin:miter;stroke:rgb(100%,0%,0%);stroke-opacity:1;stroke-miterlimit:10;" d="M 220.371094 132.179688 L 227.65625 134.210938 "/>
<path style="fill:none;stroke-width:1.2;stroke-linecap:butt;stroke-linejoin:miter;stroke:rgb(0%,0%,0%);stroke-opacity:1;stroke-miterlimit:10;" d="M 214.882812 123.695312 L 222.171875 125.726562 "/>
<path style="fill:none;stroke-width:1.2;stroke-linecap:butt;stroke-linejoin:miter;stroke:rgb(100%,0%,0%);stroke-opacity:1;stroke-miterlimit:10;" d="M 222.171875 125.726562 L 229.457031 127.757812 "/>
<path style=" stroke:none;fill-rule:nonzero;fill:rgb(100%,100%,100%);fill-opacity:1;" d="M 224.558594 124.484375 L 233.558594 124.484375 L 233.558594 137.484375 L 224.558594 137.484375 Z M 224.558594 124.484375 "/>
<g style="fill:rgb(100%,0%,0%);fill-opacity:1;">
  <use xlink:href="#glyph0-1" x="224.558594" y="134.385742"/>
</g>
<path style="fill:none;stroke-width:1.2;stroke-linecap:butt;stroke-linejoin:miter;stroke:rgb(0%,0%,0%);stroke-opacity:1;stroke-miterlimit:10;" d="M 241.085938 177 L 226.175781 201.253906 "/>
<path style="fill:none;stroke-width:1.2;stroke-linecap:butt;stroke-linejoin:miter;stroke:rgb(0%,0%,0%);stroke-opacity:1;stroke-miterlimit:10;" d="M 226.269531 197.90625 L 212.039062 197.515625 "/>
<path style="fill:none;stroke-width:1.2;stroke-linecap:butt;stroke-linejoin:miter;stroke:rgb(100%,0%,0%);stroke-opacity:1;stroke-miterlimit:10;" d="M 212.039062 197.515625 L 197.808594 197.125 "/>
<path style="fill:none;stroke-width:1.2;stroke-linecap:butt;stroke-linejoin:miter;stroke:rgb(0%,0%,0%);stroke-opacity:1;stroke-miterlimit:10;" d="M 226.082031 204.605469 L 211.851562 204.210938 "/>
<path style="fill:none;stroke-width:1.2;stroke-linecap:butt;stroke-linejoin:miter;stroke:rgb(100%,0%,0%);stroke-opacity:1;stroke-miterlimit:10;" d="M 211.851562 204.210938 L 197.625 203.820312 "/>
<path style="fill:none;stroke-width:1.2;stroke-linecap:butt;stroke-linejoin:miter;stroke:rgb(0%,0%,0%);stroke-opacity:1;stroke-miterlimit:10;" d="M 226.175781 201.253906 L 232.953125 213.777344 "/>
<path style="fill:none;stroke-width:1.2;stroke-linecap:butt;stroke-linejoin:miter;stroke:rgb(100%,0%,0%);stroke-opacity:1;stroke-miterlimit:10;" d="M 232.953125 213.777344 L 239.726562 226.296875 "/>
<path style=" stroke:none;fill-rule:nonzero;fill:rgb(100%,100%,100%);fill-opacity:1;" d="M 188.714844 193.972656 L 197.714844 193.972656 L 197.714844 206.972656 L 188.714844 206.972656 Z M 188.714844 193.972656 "/>
<g style="fill:rgb(100%,0%,0%);fill-opacity:1;">
  <use xlink:href="#glyph0-1" x="188.714844" y="203.874023"/>
</g>
<path style="fill:none;stroke-width:1.2;stroke-linecap:butt;stroke-linejoin:miter;stroke:rgb(100%,0%,0%);stroke-opacity:1;stroke-miterlimit:10;" d="M 239.726562 226.296875 L 232.273438 238.421875 "/>
<path style="fill:none;stroke-width:1.2;stroke-linecap:butt;stroke-linejoin:miter;stroke:rgb(0%,0%,0%);stroke-opacity:1;stroke-miterlimit:10;" d="M 232.273438 238.421875 L 224.816406 250.550781 "/>
<path style=" stroke:none;fill-rule:nonzero;fill:rgb(100%,100%,100%);fill-opacity:1;" d="M 235.726562 219.796875 L 244.726562 219.796875 L 244.726562 232.796875 L 235.726562 232.796875 Z M 235.726562 219.796875 "/>
<g style="fill:rgb(100%,0%,0%);fill-opacity:1;">
  <use xlink:href="#glyph0-1" x="235.726562" y="229.698242"/>
</g>
<path style=" stroke:none;fill-rule:nonzero;fill:rgb(100%,100%,100%);fill-opacity:1;" d="M 235.800781 71.910156 L 252.800781 71.910156 L 252.800781 84.910156 L 235.800781 84.910156 Z M 235.800781 71.910156 "/>
<g style="fill:rgb(100%,0%,0%);fill-opacity:1;">
  <use xlink:href="#glyph0-1" x="235.800781" y="81.811523"/>
  <use xlink:href="#glyph0-2" x="244.201172" y="81.811523"/>
</g>
</g>
</svg>

<svg xmlns="http://www.w3.org/2000/svg" xmlns:xlink="http://www.w3.org/1999/xlink" width="300pt" height="300pt" viewBox="0 0 300 300"><defs><symbol overflow="visible"><path d="M.547 1.938V-7.75h5.5v9.688zm.625-.61h4.266v-8.47H1.171zm0 0"/></symbol><symbol overflow="visible" id="a"><path d="M4.328-7.28c-.78 0-1.406.296-1.875.89-.46.585-.687 1.382-.687 2.39 0 1.012.226 1.813.687 2.406.47.586 1.094.875 1.875.875.79 0 1.414-.288 1.875-.874.457-.593.688-1.394.688-2.406 0-1.008-.23-1.805-.687-2.39-.46-.594-1.086-.89-1.875-.89zm0-.892c1.125 0 2.024.383 2.703 1.14C7.708-6.28 8.048-5.27 8.048-4c0 1.262-.34 2.273-1.016 3.03C6.353-.22 5.454.157 4.33.157S2.3-.22 1.625-.97c-.668-.75-1-1.757-1-3.03 0-1.27.332-2.28 1-3.03.676-.76 1.578-1.142 2.703-1.142zm0 0"/></symbol><symbol overflow="visible" id="b"><path d="M1.078-8.016h1.094v3.282H6.11v-3.282h1.077V0H6.11v-3.813H2.17V0H1.078zm0 0"/></symbol></defs><g><path fill="#fff" d="M0 0h300v300H0z"/><path d="M113.69 148.824m-1.99 2.242l.89.547m-2.883 1.7l1.777 1.09m-3.765 1.152l2.663 1.64m-4.656.606l3.554 2.184m-5.546.06l4.442 2.73m-6.434-.49l5.332 3.28m-7.32-1.033l6.22 3.822m-8.212-1.58l7.105 4.373m-9.097-2.125l7.996 4.914M94.5 170.45l8.563 5.26" stroke="#000" stroke-miterlimit="10" fill="none"/><path d="M113.69 148.824l13.552 25.04M128.602 124.566l-14.91 24.258M85.23 148.04l28.46.784M127.242 173.863l28.46.785M155.703 174.648l14.91-24.257M170.613 150.39l-13.55-25.038M199.074 151.176l-28.46-.785M157.063 125.352l-28.46-.786M154.03 131.97l-22.768-.626M157.063 125.352l14.91-24.254M128.602 124.566l-13.55-25.04M115.05 99.527l-28.46-.78M112.02 106.148l-22.77-.628M86.59 98.746l-7.457 12.125" stroke-width="1.2" stroke="#000" stroke-miterlimit="10" fill="none"/><path d="M79.133 110.87L71.68 123" stroke-width="1.2" stroke="#f00" stroke-miterlimit="10" fill="none"/><path d="M86.59 98.746l-6.778-12.523" stroke-width="1.2" stroke="#000" stroke-miterlimit="10" fill="none"/><path d="M79.813 86.223l-6.774-12.52M71.68 123l6.773 12.52" stroke-width="1.2" stroke="#f00" stroke-miterlimit="10" fill="none"/><path d="M78.453 135.52l6.777 12.52" stroke-width="1.2" stroke="#000" stroke-miterlimit="10" fill="none"/><path d="M67.68 116.5h9v13h-9zm0 0" fill="#fff"/><use xlink:href="#a" x="67.68" y="126.401" fill="#f00"/><path d="M85.23 148.04l-14.91 24.257M70.32 172.297l10.86 26.316M65.215 177.48l8.687 21.06M41.934 174.492l28.386-2.195M81.18 198.613l-10.836 9.23" stroke-width="1.2" stroke="#000" stroke-miterlimit="10" fill="none"/><path d="M70.344 207.844l-10.84 9.23M59.504 217.074L47.38 209.62" stroke-width="1.2" stroke="#f00" stroke-miterlimit="10" fill="none"/><path d="M47.38 209.62l-12.13-7.452" stroke-width="1.2" stroke="#000" stroke-miterlimit="10" fill="none"/><path d="M55.504 210.574h9v13h-9zm0 0" fill="#fff"/><use xlink:href="#a" x="55.504" y="220.476" fill="#f00"/><path d="M35.25 202.168l6.684-27.676M42.43 200.973l5.347-22.14" stroke-width="1.2" stroke="#000" stroke-miterlimit="10" fill="none"/><path d="M73.04 73.703l7.452-12.125" stroke-width="1.2" stroke="#f00" stroke-miterlimit="10" fill="none"/><path d="M80.492 61.578l7.453-12.13" stroke-width="1.2" stroke="#000" stroke-miterlimit="10" fill="none"/><path d="M69.04 67.203h9v13h-9zm0 0" fill="#fff"/><use xlink:href="#a" x="69.039" y="77.104" fill="#f00"/><path d="M171.973 101.098l28.46.78M200.434 101.88l28.457.784M213.984 126.922l-13.55-25.043M228.89 102.664l13.555 25.04M228.89 102.664l7.458-12.13" stroke-width="1.2" stroke="#000" stroke-miterlimit="10" fill="none"/><path d="M236.348 90.535L243.8 78.41" stroke-width="1.2" stroke="#f00" stroke-miterlimit="10" fill="none"/><path d="M242.445 127.703l-14.91 24.258M242.445 127.703l21.297 18.9M242.445 127.703l22.305-17.69M227.535 151.96l-28.46-.784M227.535 151.96l13.55 25.04M199.074 151.176l14.91-24.254" stroke-width="1.2" stroke="#000" stroke-miterlimit="10" fill="none"/><path d="M199.074 151.176m.946 2.847l.917-.496m.032 3.34l1.835-.992m-.887 3.84l2.75-1.488m-1.805 4.335l3.668-1.984m-2.718 4.832l4.586-2.484m-3.64 5.328l5.504-2.977m-4.555 5.825l6.418-3.473m-5.47 6.32l7.337-3.973m-6.39 6.816l8.253-4.465m-7.648 6.277l8.836-4.78" stroke="#000" stroke-miterlimit="10" fill="none"/><path d="M213.082 130.148l7.29 2.032" stroke-width="1.2" stroke="#000" stroke-miterlimit="10" fill="none"/><path d="M220.37 132.18l7.286 2.03" stroke-width="1.2" stroke="#f00" stroke-miterlimit="10" fill="none"/><path d="M214.883 123.695l7.29 2.032" stroke-width="1.2" stroke="#000" stroke-miterlimit="10" fill="none"/><path d="M222.172 125.727l7.285 2.03" stroke-width="1.2" stroke="#f00" stroke-miterlimit="10" fill="none"/><path d="M224.56 124.484h9v13h-9zm0 0" fill="#fff"/><use xlink:href="#a" x="224.559" y="134.386" fill="#f00"/><path d="M241.086 177l-14.91 24.254M226.27 197.906l-14.23-.39" stroke-width="1.2" stroke="#000" stroke-miterlimit="10" fill="none"/><path d="M212.04 197.516l-14.23-.39" stroke-width="1.2" stroke="#f00" stroke-miterlimit="10" fill="none"/><path d="M226.082 204.605l-14.23-.394" stroke-width="1.2" stroke="#000" stroke-miterlimit="10" fill="none"/><path d="M211.852 204.21l-14.227-.39" stroke-width="1.2" stroke="#f00" stroke-miterlimit="10" fill="none"/><path d="M226.176 201.254l6.777 12.523" stroke-width="1.2" stroke="#000" stroke-miterlimit="10" fill="none"/><path d="M232.953 213.777l6.774 12.52" stroke-width="1.2" stroke="#f00" stroke-miterlimit="10" fill="none"/><path d="M188.715 193.973h9v13h-9zm0 0" fill="#fff"/><use xlink:href="#a" x="188.715" y="203.874" fill="#f00"/><path d="M239.727 226.297l-7.454 12.125" stroke-width="1.2" stroke="#f00" stroke-miterlimit="10" fill="none"/><path d="M232.273 238.422l-7.457 12.13" stroke-width="1.2" stroke="#000" stroke-miterlimit="10" fill="none"/><path d="M235.727 219.797h9v13h-9zm0 0" fill="#fff"/><use xlink:href="#a" x="235.727" y="229.698" fill="#f00"/><path d="M235.8 71.91h17v13h-17zm0 0" fill="#fff"/><g fill="#f00"><use xlink:href="#a" x="235.801" y="81.812"/><use xlink:href="#b" x="244.201" y="81.812"/></g></g></svg>
